X:1
T:Salve Regina
%%score [ ( 1 2 ) ( 3 4 ) ]
L:1/8
Q:1/4=120
M:3/4
K:C
V:1 treble-8 nm="1.+2. Tenor" snm="1.+2. T."
V:2 treble-8 
V:3 bass nm="1.+2. Baß" snm="1.+2. B."
V:4 bass 
V:1
 e2!f! c3 f | e>d c2 z2 | e2"^Franz Schubert, Op. 149 ( 1824 )"!<(! fg!<)!!<(! af!<)! | %3
w: Sal- ve Re-|gi­ * na,|ma- ter mi- se- ri-|
 d3/2 e/4f/4!p! e2 z2 | g2 e2 z g | g/f/e/f/ d4 | e3 d cf | e2 d2 z2 | g2 e2 z e | g/f/a/f/ d4 | %10
w: cor- di­ * ae,|vi- ta, dul­|­ce­ * * * do|et spes no- stra,|sal- ve;|vi- ta, dul-|ce­ * * * do|
!f!!<(! c3 d e g/f/!<)! |!<(! ed c2!<)! z2 |!pp! ed c2!f! !fermata!z E | e4-!p!!f! ef | %14
w: et spes no- stra, *|sal­ * ve,|sal­ * ve! Ad|te * cla-|
!<(! ea!<)!!>(! ^g4!>)! | =g2 ^fe f/g/f/e/ | ^d3/2e/4^f/4 e2 z E | e4 ef | %18
w: ma­ * mus|e- xu- les fi­ * li- i|E­ * * vae; ad|te su- spi-|
!<(! ea!<)!!>(! ^g3!>)! e | ^c=g"^decresc."!pp! ^f3 d/=c/ | B=f e3 e | e2 ee ee | z6 | (e4 g^f) | %24
w: ra­ * mus ge-|men­ * tes et *|flen­ * tes in|hac la- cry- ma- rum|||
 e4 z2 |!p!!ff!!mf!!p!!<(! ^f4 f2!<)! |!>(! (g2!>)! a3) g |"^er-__""^go" g3 e ge | d>c B2 z2 | %29
w: |||||
"^il-""^los" d4!<(! e^f!<)! |!>(! (g2!>)! a3) g | g2 ^fe!ff!!mf!!p! g"^tu-__""^os"e | d>c Bc de | %33
w: ||||
 (A2!>(! e3!>)! A) | A2 z2 z2 | z e ee fe | ea e4 | d3 d{^f} ed | d/e/^f/g/!f! d2!<(! (=f2 | %39
w: ||et Je- sum, be- ne-|di­ * ctum|fruc- tum tris tu­|* * * i, no­ *|
 f2)!<)! ee gg | g ^f/g/!<(! a2 g2!<)! |!p! ^f2!pp! !fermata!f2 d2 | g6 | %43
w: bis post hoc e­ *|­xi- li­ * um o-|sten- de; o|cle-|
"^o""^cle-_""^mens" ^f4 z d | g6 |"^o""^pi-__""^a," ^f4 z d | g6 | ^f6 | e>^f g2 a2 | %49
w: mens, o|pi-|a, o|dul-|cis|vir­ * go Ma-|
!pp!!f!"^cresc." ^f6 | g4 z2 | e2 c3 =f | e>d c2 z2 | e2!<(! fg!<)!!<(! af!<)! | %54
w: ri-|a!|Sal- ve Re-|gi­ * na,|ma- ter mi- se- ri­|
 d3/2 e/4f/4 e2 z2 | g2 e2 z g | g/f/e/f/ d4 | e3 d cf | e2 d2 z2 | g2 e2 z g | g/a/g/f/ e4 | %61
w: ­cor- di­ * ae|vi- ta, dul-|ce­ * * * do|et spes no- stra,|sal- ve,|vi- ta, dul­|­ce­ * * * do|
!f!!pp!!f! !fermata!d3 ^c df | ed ^c2 z2 | ed ^c3 A | (f3 g f)e |!<(!!<(! de!<)!!<)! ^c4 | %66
w: et spes no- stra,|sal­ * ve,|sal­ * ve! Ad|te * * cla-|ma­ * mus|
 =c2 de fe/f/ | a>g f2 z!p!!f! A | (f3 g) fe | de ^c3 c | de ^c3 c | de ^c3 c | %72
w: e- xu- les- fi- li- i|E­ * vae, ad|te * su- spi-|ra­ * mus ge-|men­ * tes et|flen­ * tes in|
 d2 =cd e"^decresc."!p!!pp!!p!!ff!!f!f | (B4 ^d^f) | e4 z2 | ^f4!<(! f2!<)! |!>(! (g2!>)! a3) g | %77
w: hac la- cry- ma- rum|val­ * *|le.|E- ja,|er­ * go,|
 g3 e gf | d3/2e/4f/4 e2 z2 | d4 e^f |!>(! (g2!>)!!p!!ff!!f!!p! a3) g | g2 =fe g>f | %82
w: ad- vo- ca- ta|no­ * * stra,|il- los *|tu­ * os|mi- se- ri cor- des|
 d3/2 e/4f/4 ef ga | (d4 a2) | d2 z2 z2 | z f2!p! f _ed | _e>f e4 | g2 gg f_e | %88
w: o- cu­ * los ad nos con­|­ver­ *|te,|et o- sten- de|no­ * bis,|no- bis post hoc e-|
 d3/2 f/4_e/4!<(! d2 e2!<)! |!>(! (e2!>)! d) z ^f2- | f!f!!p!!pp!!fermata!^f/g/ a4 | %91
w: xi- li­ * um Je­|­ sum, fi­|* li- um tu-|
 g4"^o""^cle-""^mens,""^-""^-""^-" z2 | z6 | z!p! g"^o""^cle-""^mens,""^o""^pi-" ^fg ag | %94
w: um!||­ ­ ­ ­ o|
!<(! g6!<)! | gg ^fg ag | g6 |"^o""^pi-__""^a," ^g6 |!f!!pp! (a3 =f) ef | d2 e2 G2 | g6 | g4 z g | %102
w: pi­|­a, ­ ­ ­ ­ o|dul-|cis|vir­ * go Ma-|ri- a, o|||
 g6 | g4 z g |"^o""^dul-""^cis" g6 | ^g6 | a>f e2!ff!!f! ^f2 | g6 | g4 z2 |!pp! e2 c3 f | %110
w: ||||||­a!|Sal- ve Re-|
 e>d c2 z2 |!mf!!<(! e2 f!<)!g!<(! af!<)! | d3/2 e/4f/4!pp! e2 z2 | e2 ^c2 z2 | e2 ^c2 z2 | %115
w: gi­ * na,|ma- ter mi- se- ri-|cor- di­ * ae,|sal- ve,|sal- ve,|
!<(! (a2 _b4!<)! |!>(! a)!>)!g/f/ (e3 d) | c2!ff! z2 ed |!p!!pp! !fermata!c2 z2 ed | c2 z2 z2 |] %120
w: sal­ *|* ve Re- gi­ *|na, sal­ *|ve, sal­ *|ve!|
V:2
 c2 c3 c | B2 c2 z2 | c2 de fd | B>B c2 z2 | e2 c2 z e | e/d/^c/d/ G4 | =c3 B cd | c2 B2 z2 | %8
w: ||||||||
 e2 c2 z c | e/d/f/d/ G4 | A3 B cd | B2 c2 z2 | B2 c2 z E | (c3 d c)d | c^d e4 | e2 ^de cc/c/ | %16
w: ||||||||
 B2 B2 z E | (c3 d) cd | c^d e3 ^G | A^c d3 ^F | GB =c3 G | GB cc BA | x6 | (B4 ^d2) | e4 z2 | %25
w: |||||||val­ *|le.|
 c4 c2 | Bf f4 | e3 c ec | A2 G2 z2 | z2 c2 c2 | Bf f4 | e2 dc ec | A>A GG G_B | (A2 _B3 A) | %34
w: E- ja|er­ * go|ad- vo- ca- ta|no- stra,|il- los|tu­ * os|mi- se- ri- cor- des|o- cu- los ad nos con-|ver­ * *|
 A2 z2 z2 | z =B BB BB | c2 c4 | c2 c2 cc | B2 B2 d2- | d2 cc !>!ee | d>d d3 ^c | d2 d2 d2 | d6 | %43
w: te;|||||||||
 dd ^cd ed | d6 | dd ^cd ed | d6 | ^d6 | e>=c =d2 e2 | c6 | B4 z2 | c2 c3 c | B2 c2 z2 | c2 de fd | %54
w: |||||||||||
 B>B c2 z2 | e2 c2 z e | e/d/^c/d/ G4 | c3 B cd | c2 B2 z2 | e2 c2 z e | e/f/e/d/ ^c4 | d3 e dd | %62
w: ||||||||
 ^G2 A2 z2 | ^G2 A3 A | (d3 e d)^c | d^G A4 | A2 _BB cc/c/ | e2 f2 z A | (d3 e) d^c | d^G A3 A | %70
w: ||||||||
 ^G2 A3 A | ^G2 A3 A | B2 AA AA | (^G4 c2) | B4 z2 | c4 c2 | Bf f4 | e3 c ed | B2 c2 z2 | %79
w: |||||||||
 z2 c2 c2 | Bf f4 | e2 dc e>d | B>B cc c_e | (d4 _e2) | d2 z2 z2 | z d2 d cB | c>d c4 | _e2 ee dc | %88
w: |||||||||
 B>c B2 c2- | c2 B z c2- | cc/c/ c4 | B4 G2 | c6 | B4 z G | c6 | B4 z B | c6 | d6 | (c3 d) cd | %99
w: |||||||||||
 B2 c2 G2 | c6 | d4 z B | c6 | d4 z B | (e6 | d3!<(! f) ed!<)! | c>d c2 d2 | (e2 d2 c2) | d4 z2 | %109
w: |cle-|mens, o|pi-|a, o|dul­|* * cis *|vir­ * go Ma­|ri­ * *||
 !fermata!c2 c3 c | B2 c2 z2 | c2 de fd | B>B c2 z2 | ^c2 A2 z2 | ^c2 A2 z2 | e6 | fe/d/ (=c2 B2) | %117
w: ||||||||
 c2 z2 B2 | c2 z2 B2 | c2 z2 z2 |] %120
w: |||
V:3
 G,2 E,3 A, | G,>F, E,2 z2 | C2 B,_B, A,A, | G,>G, G,2 z2 | z2 G,2 G,2 | z G, G,2 G,2 | %6
w: ||||||
 G,3 F, E,A, | G,2 G,2 z2 | z2 G,2 G,2 | z G, G,2 G,2 | E,3 F, G,A, | F,2 E,2 z2 | %12
w: ||||||
 F,2 E,2 !fermata!z z | z E, CB, CB, | CA, B,4 | B,2 A,G, A,A,/A,/ | A,2 G,2 z2 | z E, CB, CB, | %18
w: ||||||
 CA, B,3 z | z A, A,B, C2 | z G, G,A, _B,2 | =B,G, ^F,F, F,F, | z6 | G,4 A,2 | G,4 z2 | A,4 A,2 | %26
w: ||||||||
 G,B, B,4 | C3 G, E,G, | ^F,2 G,2 z2 | z2 A,2 A,2 | G,B, B,4 | C2 G,G, E,G, | ^F,>F, G,G, G,G, | %33
w: |||||mi- se- ri- cor- des|o- cu- los ad nos con-|
 (^F,2 G,3 F,) | ^F,2 z2 z2 | z ^G, G,G,"^2. B." G,G, | A,2 A,4 | ^F,3 F, G,F, | G,2 G,2 ^G,2- | %39
w: ver­ * *|te;|||||
 G,2 A,A, _B,B, | A,>=B, C2 _B,2 | A,2 A,2 D,2 | G,6 | A,4 z ^F, | G,6 | A,4 z ^F, | G,6 | A,6 | %48
w: |||||||||
!f! G,>C B,2 A,2 | A,6 | G,4 z2 | G,2 E,3 A, | G,>F, E,2 z2 | C2 B,_B, A,A, | G,>G, G,2 z2 | %55
w: |||||||
 z2 G,2 G,2 | z G, G,2 G,2 | G,3 F, E,A, | G,2 G,2 z2 | z2 G,2 G,2 | z G, G,2 G,2 | F,3 G, F,D, | %62
w: |||||||
 D,2 E,2 z2 | D,2 E,3 z | z A,, A,_B, A,G, | F,D, E,4 | E,2 G,G, A,A,/A,/ | _B,2 A,2 z2 | %68
w: ||||||
 z A,, A,_B, A,G, | F,D, E,3 z | z"^ge-""^men-""^tes""^et_" D, E,F, G, F,/E,/ | %71
w: |||
 (D,2 E,F,) G,"^flen-""^tes" F,/E,/ | F,2 E,A, A,A, | (E,4 A,2) | ^G,4 z2 | A,4 A,2 | =G,B, B,4 | %77
w: ||||||
 C3 G, A,A, | G,2 G,2 z2 | z2 A,2 A,2 | G,B, B,4 | C2 G,G, A,>A, | G,>G, G,G, CC | (B,4 C2) | %84
w: ||||||­ver­ *|
 B, G,2 G, G,G, | G,2 G,4 | G,2 G,G, G,G, | G,>G, G,3 G, | G,2 G,2 ^F,2- | (G,2 G,) z (A,2 | %90
w: te, et o- sten- de|no- bis,|no- bis post hoc e-|xi- li- um, o-|sten- de Je­|­ sum, fi­|
 A,)A,/G,/ F,4 | !fermata!G,4!pp! G,2 | G,6 | G,4 z G, | G,6 | G,4 z G, | G,6 | B,6 | %98
w: * li- um tu-|um! o|cle-|mens, o|pi­|a, o|dul-|cis|
 (A,3 B,) CA, | G,2 G,2 z2 | z2 z2 z C | B,D CB, A,G, | G,>E, G,2 z C | %103
w: vir­ * go Ma-|ri- a,||||
"^o""^cle-""^mens,""^o""^pi-""^a,""^o""^dul-""^cis,""^o""^dul-____" B,D CB, A,G, |"^cis" (C6 | %105
w: ||
 B,3 D) CB, | A,>B, C2 C2 | (C2 B,2 A,2) | B,4 !fermata!z2 | G,2 E,3 A, | G,>F, E,2 z2 | %111
w: |||­a!|Sal- ve Re-|gi­ * na,|
 C2 B,_B, A,A, | G,>G, G,2 z2 | A,2 E,2 z2 | A,2 E,2 z2 | (^C2 =C4- | C)A,/A,/ (G,2 F,2) | %117
w: ma- ter mi- se- ri-|cor- di- ae,|sal- ve,|sal- ve,|sal­ *|* ve Re- gi­ *|
 E,2 z2 F,2 | E,2 z2 F,2 | E,2 z2 z2 |] %120
w: na, sal-|ve, sal-|ve!|
V:4
 C,2 C,3 F,, | G,,2 C,2 z2 | C,2 C,C, F,,F,, | G,,>G,, C,2 z2 | z2 C,2 C,2 | z B,, B,,2 B,,2 | %6
w: Sal- ve Re-|gi- na,|ma- ter mi- se- ri-|cor- di- ae,|vi- ta|dul- ce- do|
 C,3 G,, A,,F,, | G,,2 G,,2 z2 | z2 C,2 C,2 | z B,, B,,2 B,,2 | A,,3 G,, C,F,, | G,,2 C,2 z2 | %12
w: et spes no- stra,|sal- ve;|vi- ta,|dul- ce- do|et spes no- stra,|sal- ve,|
 G,,2 C,2 z z | z E, A,^G, A,G, | A,F, E,4 | E,2 B,,C, A,,A,,/A,,/ | B,,2 E,2 z2 | %17
w: sal- ve!|Ad te * * cla-|ma­ * mus|e- xu- les fi- li- i|E- vae|
 z E, A,^G, A,G, | A,F, E,3 z | z _E, D,2 D,2 | z _D, C,2 C,2 | B,,B,, A,,A,, B,,C, | x6 | B,,6 | %24
w: ad te * su- spi-|ra­ * mus|ge- men- tes|et flen- tes|in hac la- cry- ma- rum||val-|
 E,4 z2 | D,4 D,2 | G,,4 G,,2 | C,3 C, C,C, | D,2 E,2 z2 | z2 D,2 D,2 | G,,4 G,,2 | C,2 C,C, C,C, | %32
w: le.|E- ja|er- go|ad- vo- ca- ta|no- stra,|il- los|tu- os||
 D,>^D, E,E, =D,^C, | (D,2 ^C,3 D,) | D,D, D,2 D,2 | D,4 D,2 | D,3 D, D,D, | D,4 D,2 | %38
w: ||* et Je- sum|be- ne-|di- ctum fru- ctum|ven- tris|
 D,2 D,2 B,,2- | B,,2 C,C, ^C,C, | D,>D, D,2 D,2 | D,2 !fermata!D,2 D,2 | B,,6 | C,4 z C, | B,,6 | %45
w: tu- i, no­|* bis post hoc e­|xi- li- um o-|sten- de; o|cle-|mens, o|pi-|
 C,4 z C, | B,,6 | B,,6 | C,>A,, B,,2 C,2 | D,6 | G,,4 z2 | C,2 C,3 F,, | G,,2 C,2 z2 | %53
w: a, o|dul-|cis|vir­ * go Ma-|ri-|a!|Sal- ve Re-|gi- na,|
 C,2 C,C, F,,F,, | G,,>G,, C,2 z2 | z2 C,2 C,2 | z B,, B,,2 B,,2 | C,3 G,, A,,F,, | G,,2 G,,2 z2 | %59
w: ma- ter mi- se- ri­|­cor- di- ae,|vi- ta,|dul- ce- do|et spes no- stra,|sal- ve,|
 z2 C,2 _B,,2 | z A,, A,,2 A,,2 | _B,,3 B,, B,,B,, | _B,,2 A,,2 z2 | _B,,2 !fermata!A,,3 z | %64
w: vi- ta,|dul- ce- do|et spes no- stra,|sal- ve,|sal- ve!|
 z A,, D,^C, D,A,, | _B,,2 A,,4 | A,,2 G,,G,, F,,A,,/A,,/ | C,2 F,2 z2 | z A,, D,^C, D,A,, | %69
w: Ad te * * cla-|ma- mus|e- xu- les fi- li- i|E- vae;|ad te * su- spi-|
 _B,,2 A,,3 A,, | _B,,2 A,,3 A,, | _B,,2 A,,3 A,, | ^G,,2 A,,=B,, C,D, | E,6 | E,4 z2 | D,4 D,2 | %76
w: ra- mus ge-|men- tes et|flen- tes in|hac la- cry ma- rum|val-|le.|E- ja,|
 G,,4 G,,2 | C,3 C, F,F, | G,2 C,2 z2 | z2 ^F,2 D,2 | G,,4 G,,2 | C,2 C,C, F,>F, | %82
w: er- go,|ad- vo- ca- ta|no- stra,|il- los|tu- os|mi- se- ri- cor- des|
 G,>G, C,D, E,^F, | (G,4 ^F,2) | G,2 z2 z2 | z6 | z6 | z6 | z6 | z2 z2 D,2- | D,D,/D,/ D,4 | %91
w: o- cu- los ad nos co­|||||||||
 G,,4 G,2 | E,6 | F,4 z F, | E,6 | F,4 z F, | E,6 | E,6 | (F,3 ^G,) A,F, | =G,2 C,2 G,2 | E,6 | %101
w: ||||||||* * o|cle-|
 F,4 z F, | E,6 | F,4 z F, | E,6 | E,6 | F,>^G, A,2 A,2 | =G,6 | G,4 z2 | C,2 C,3 F,, | %110
w: mens, o|pi-|a, o|dul-|cis|vir­ * go Ma-|ri­|||
 G,,2 C,2 z2 | C,2 C,C, F,,F,, | G,,>G,, C,2 z2 | A,,2 A,,2 z2 | A,,2 A,,2 z2 | A,2 G,4 | %116
w: ||||||
 F,F,,/F,,/ G,,4 | C,2 z2 G,,2 | C,2 z2 !fermata!G,,2 | C,2 z2 z2 |] %120
w: ||||

